X: 805
T: Quarantine Polka
C:W.F. Strong, 1885
B: jims roots
M:2/4
L:1/16
R: Form: ABAC
Q: 1/4=100
K:F
V:1 
"F"ccc2 "F"ddd2 | "F"c=Bcf a2a2 | "G"g2fe d2ed | "C"c2z6 ||
"F"ccc2 "F"ddd2 | "F"c=Bcf a2a2 | "C"z2be g2g2 | "F"z2ac f2f2 |
"F"ccc2 "A7"^ccc2 | "D"ddd2 "G7"g3f | "C"c2[d2b] [c3a][Bg] |[1 "F"[A2F][A2F] "(to B Part)"[A4F] ||[2 "F"[A2f][A2f] "(to C Part)"[A4f] ||
|:[K:C]"C"[e6g]e'2 | d'2c'2 [e4g] | "G"[f2a]B2 [f2a]B2 | a2g2 g^fg2 | "C"[e6g]e'2 | d'2c'2 [e4g] | "G"[f2a]B2 [f2a]B2 | "C"c2c2 !D.C.!c4 :|
|:[K:Bb] "Bb"F6G2 | A2B2"Eb"e4| {GB}d2c2 G4 | {gb}d'2c'2 g4 | "F"A6c2 |
e2=e2 a4 | "Bb"{ce}g2f2 B4 | {ce}g2f2 B4 ||  F6G2 | A2B2"Eb"e4| {GB}d2c2 G4 | {gb}d'2c'2 g4 |
"Eb"[d4b][A2a][g2] | "Bb"[d2g][d2f] [d2f][F2d] | "F"[F2d][c2] [g2B][f2B] | "Bb"[d2b]z2 [d2b]z2:|]
V:P:A Part
 O"F"ccc2 "F"ddd2 | "F"c=Bcf a2a2 | "C"z2be g2g2 | "F"z2ac f2f2 |
% abcbook-tune_id 6298c279ebc02faaa3731868


% abcbook-boost 0
% abcbook-tablature 
% abcbook-transpose 
% abcbook-lastupdated 1654178426691
% abcbook-soundfonts 
% abcbook-repeats 1


